src/pos-icons/arrow-up-down.svg

<svg height="24" viewBox="0 0 24 24" width="24" xmlns="http://www.w3.org/2000/svg"><path d="m17.45 17.55-5.45 5.45-5.45-5.45 1.41-1.41 3.04 3.03v-14.34l-3.04 3.03-1.41-1.41 5.45-5.45 5.45 5.45-1.41 1.41-3.04-3.03v14.34l3.04-3.03z"/></svg>

<?xml version="1.0" encoding="UTF-8"?><!DOCTYPE svg PUBLIC "-//W3C//DTD SVG 1.1//EN" "http://www.w3.org/Graphics/SVG/1.1/DTD/svg11.dtd"><svg xmlns="http://www.w3.org/2000/svg" xmlns:xlink="http://www.w3.org/1999/xlink" version="1.1" id="mdi-arrow-up-down" width="24" height="24" viewBox="0 0 24 24"><path d="M17.45,17.55L12,23L6.55,17.55L7.96,16.14L11,19.17V4.83L7.96,7.86L6.55,6.45L12,1L17.45,6.45L16.04,7.86L13,4.83V19.17L16.04,16.14L17.45,17.55Z" /></svg>
